assets/images/nav/track-develop.svg

<?xml version="1.0" encoding="UTF-8" standalone="no"?>
<svg width="32px" height="32px" viewBox="0 0 32 32" version="1.1" xmlns="http://www.w3.org/2000/svg" xmlns:xlink="http://www.w3.org/1999/xlink" xmlns:sketch="http://www.bohemiancoding.com/sketch/ns">
    <!-- Generator: Sketch 3.4 (15588) - http://www.bohemiancoding.com/sketch -->
    <title>nav/track-develop</title>
    <desc>Created with Sketch.</desc>
    <defs></defs>
    <g id="Page-1" stroke="none" stroke-width="1" fill="none" fill-rule="evenodd" sketch:type="MSPage">
        <g id="nav/track-develop" sketch:type="MSArtboardGroup" stroke="#F6F6F6" stroke-width="1.2" stroke-linecap="round" stroke-linejoin="round">
            <path d="M13.5,30.5 L2.5,30.5 L2.5,22.5 L13.5,22.5 L13.5,30.5 L13.5,30.5 Z" id="Stroke-91" sketch:type="MSShapeGroup"></path>
            <path d="M13.141,6.0649 L23.49551,6.0649 L23.49551,9.334749" id="Stroke-93" sketch:type="MSShapeGroup"></path>
            <path d="M14.3507,26.893209 L23.558602,26.893209 L23.558602,22.6618" id="Stroke-95" sketch:type="MSShapeGroup"></path>
            <path d="M12.71429,6.357143 C12.71429,9.316071 10.316071,11.71429 7.357143,11.71429 C4.398215,11.71429 2,9.316071 2,6.357143 C2,3.398215 4.398215,1 7.357143,1 C10.316071,1 12.71429,3.398215 12.71429,6.357143 L12.71429,6.357143 L12.71429,6.357143 Z" id="Stroke-97" sketch:type="MSShapeGroup"></path>
            <path d="M23.525983,9.1232 L16.6591,15.990083 L23.525983,22.85697 L30.39287,15.990083 L23.525983,9.1232 L23.525983,9.1232 Z" id="Stroke-99" sketch:type="MSShapeGroup"></path>
        </g>
    </g>
</svg>

<svg xmlns="http://www.w3.org/2000/svg" width="32" height="32" viewBox="0 0 32 32"><g fill="none" fill-rule="evenodd" stroke="#FFF" stroke-width="2" stroke-linecap="round" stroke-linejoin="round"><path d="M13.5 30.5h-11v-8h11zM13.141 6.065h10.355v3.27M14.351 26.893h9.208v-4.231M12.714 6.357a5.357 5.357 0 1 1-10.713 0 5.357 5.357 0 0 1 10.713 0z"/><path d="M23.526 9.123l-6.867 6.867 6.867 6.867 6.867-6.867z"/></g></svg>
